dist/assets/images/lavkin/onelove.svg

<svg width="1182" height="192" viewBox="0 0 1182 192" fill="none" xmlns="http://www.w3.org/2000/svg">
<path d="M91.2487 188.607L107.118 140.819H136.306L143.391 117.915H114.769L130.355 70.975H158.693L165.495 48.3535H138.007L154.443 0H127.521L111.652 48.3535H85.0143L100.884 0H74.2458L58.3765 48.3535H29.755L22.6705 70.975H50.4418L35.1392 117.915H7.36791L0 140.819H27.2046L11.0519 188.607H37.6897L53.8424 140.819H80.7636L64.3275 188.607H91.2487ZM88.1315 117.915H61.7771L77.0796 70.975H103.717L88.1315 117.915Z" fill="white"/>
<path d="M251.689 192C297.03 192 324.234 159.199 324.234 120.177C324.234 81.4374 297.03 48.6362 251.689 48.6362C206.631 48.6362 179.427 81.4374 179.427 120.177C179.427 159.199 206.631 192 251.689 192ZM251.689 160.047C229.302 160.047 216.833 141.667 216.833 120.177C216.833 98.9691 229.302 80.5891 251.689 80.5891C274.076 80.5891 286.828 98.9691 286.828 120.177C286.828 141.667 274.076 160.047 251.689 160.047Z" fill="white"/>
<path d="M479.306 188.607V92.1826C479.306 65.6024 464.853 48.6362 434.815 48.6362C412.428 48.6362 395.708 59.3814 386.924 69.8439V52.0295H350.934V188.607H386.924V96.7069C392.875 88.5066 403.926 80.5891 418.095 80.5891C433.398 80.5891 443.316 87.0928 443.316 106.038V188.607H479.306Z" fill="white"/>
<path d="M579.368 192C600.622 192 622.159 185.496 635.761 173.054L619.892 149.867C611.107 158.351 594.954 163.44 583.335 163.44C560.098 163.44 546.212 149.019 543.945 131.77H645.679V123.853C645.679 79.1752 617.908 48.6362 577.101 48.6362C535.444 48.6362 506.256 80.5891 506.256 120.177C506.256 164.006 537.711 192 579.368 192ZM610.823 107.452H543.379C545.079 93.8792 554.714 77.1959 577.101 77.1959C600.905 77.1959 609.973 94.4448 610.823 107.452Z" fill="white"/>
<path d="M707.664 188.607V0H671.675V188.607H707.664Z" fill="white"/>
<path d="M806.828 192C852.169 192 879.373 159.199 879.373 120.177C879.373 81.4374 852.169 48.6362 806.828 48.6362C761.77 48.6362 734.566 81.4374 734.566 120.177C734.566 159.199 761.77 192 806.828 192ZM806.828 160.047C784.441 160.047 771.972 141.667 771.972 120.177C771.972 98.9691 784.441 80.5891 806.828 80.5891C829.215 80.5891 841.967 98.9691 841.967 120.177C841.967 141.667 829.215 160.047 806.828 160.047Z" fill="white"/>
<path d="M980.319 188.607L1035.3 52.0295H996.472L960.766 147.04L925.06 52.0295H886.52L941.496 188.607H980.319Z" fill="white"/>
<path d="M1115.69 192C1136.94 192 1158.48 185.496 1172.08 173.054L1156.21 149.867C1147.43 158.351 1131.27 163.44 1119.66 163.44C1096.42 163.44 1082.53 149.019 1080.27 131.77H1182V123.853C1182 79.1752 1154.23 48.6362 1113.42 48.6362C1071.76 48.6362 1042.58 80.5891 1042.58 120.177C1042.58 164.006 1074.03 192 1115.69 192ZM1147.14 107.452H1079.7C1081.4 93.8792 1091.03 77.1959 1113.42 77.1959C1137.23 77.1959 1146.29 94.4448 1147.14 107.452Z" fill="white"/>
</svg>

<svg width="1182" height="192" viewBox="0 0 1182 192" fill="none" xmlns="http://www.w3.org/2000/svg"><path d="M91.249 188.607l15.869-47.788h29.188l7.085-22.904h-28.622l15.586-46.94h28.338l6.802-22.621h-27.488L154.443 0h-26.922l-15.869 48.353H85.014L100.884 0H74.246l-15.87 48.353h-28.62l-7.084 22.622h27.77l-15.302 46.94H7.368L0 140.819h27.205l-16.153 47.788H37.69l16.152-47.788h26.922l-16.436 47.788h26.92zm-3.117-70.692H61.776l15.303-46.94h26.637l-15.585 46.94zM251.689 192c45.341 0 72.545-32.801 72.545-71.823 0-38.74-27.204-71.54-72.545-71.54-45.058 0-72.262 32.8-72.262 71.54 0 39.022 27.204 71.823 72.262 71.823zm0-31.953c-22.387 0-34.856-18.38-34.856-39.87 0-21.208 12.469-39.588 34.856-39.588s35.139 18.38 35.139 39.588c0 21.49-12.752 39.87-35.139 39.87zm227.617 28.56V92.183c0-26.58-14.453-43.547-44.491-43.547-22.387 0-39.107 10.745-47.891 21.208V52.03h-35.99v136.577h35.99v-91.9c5.951-8.2 17.002-16.118 31.171-16.118 15.303 0 25.221 6.504 25.221 25.449v82.569h35.99zM579.368 192c21.254 0 42.791-6.504 56.393-18.946l-15.869-23.187c-8.785 8.484-24.938 13.573-36.557 13.573-23.237 0-37.123-14.421-39.39-31.67h101.734v-7.917c0-44.678-27.771-75.217-68.578-75.217-41.657 0-70.845 31.953-70.845 71.541 0 43.829 31.455 71.823 73.112 71.823zm31.455-84.548h-67.444c1.7-13.573 11.335-30.256 33.722-30.256 23.804 0 32.872 17.249 33.722 30.256zm96.841 81.155V0h-35.989v188.607h35.989zM806.828 192c45.341 0 72.545-32.801 72.545-71.823 0-38.74-27.204-71.54-72.545-71.54-45.058 0-72.262 32.8-72.262 71.54 0 39.022 27.204 71.823 72.262 71.823zm0-31.953c-22.387 0-34.856-18.38-34.856-39.87 0-21.208 12.469-39.588 34.856-39.588s35.139 18.38 35.139 39.588c0 21.49-12.752 39.87-35.139 39.87zm173.491 28.56L1035.3 52.03h-38.828l-35.706 95.01-35.706-95.01h-38.54l54.976 136.577h38.823zM1115.69 192c21.25 0 42.79-6.504 56.39-18.946l-15.87-23.187c-8.78 8.484-24.94 13.573-36.55 13.573-23.24 0-37.13-14.421-39.39-31.67H1182v-7.917c0-44.678-27.77-75.217-68.58-75.217-41.66 0-70.84 31.953-70.84 71.541 0 43.829 31.45 71.823 73.11 71.823zm31.45-84.548h-67.44c1.7-13.573 11.33-30.256 33.72-30.256 23.81 0 32.87 17.249 33.72 30.256z" fill="#fff"/></svg>
